X:440
T:Roses of Prince Charlie #1, The 
C:Joe Buchanan's Scottish Tome - Page 056.2
I:056 2
R:March
Z:Carl Allison
L:1/8
M:2/4
K:A
e2 |  A2 c2 Bc d2 |  c2 ec ab a2 | f2 af ecBA |  d2 c>d B3 d |
A2 c2 Bc d2 | c2 ec a>f e2 | d2 f>g acdc | B4 A2 |]
ec | A>AAB c2 BA | B>cdB e4 | d2 f>g a2 c2 | d2 c>d B3 e |
A>AAB c2 BA | B>cdB e4 | d2 f>g acdc | B4 A2 |]

